X: 1766
T: The Old Set
B: australian traditional tunes wiki
M:6/8
L:1/8
R: Jig
Q: 3/8=100
K:C
V:1 
G|:"C"c2e gfe|"F"efAA2A|"G7"BAB GAB|"C"cGE GAG|
"C"c2e gfe|"F"efAA2A|"G7"BAB GAB|1"C"c3c3:|2"C"c3 cBA||
|:"C"G2G GcB|"F"ABA Adc|"G7"cBc GAB|"C"cde gec|
G3GcB|"F"F2AA2d|"G7"ded GAB|"C"c3c2z:|
% abcbook-tune_id 6342d53a72bc1b9156bd5ef9


% abcbook-boost 0
% abcbook-tablature 
% abcbook-transpose 
% abcbook-lastupdated 1665324382577
% abcbook-soundfonts 
% abcbook-repeats 1
% NFF Book 2006

